X:1
T:The Cobbler's Hornpipe(Mr. Englefield's New Hornpipe)
Q:1/4=160-170
C:Playford
M:3/2
L:1/8
K:G
|:\
"Em"G4 E2 FG "(Am)"AGFE | "D"F2 D4 A2 G2 F2 |\
 "G"G3 A B2 AG FG A2 | "B"B,2 E4 G2 F2 E2 :| 
|:\
"Em"e4 ef g2 f2 e2 | "D"f2 d4 a2 g2 f2 |\
 "C"g3 a b2 ag fgfe | "B"B2 e4 g2 f2 e2 :| 
